!!!COM: Bach, Johann Sebastian
!!!CDT: 1685/3//-1750/7/28/
!!!OTL@@DE: O Haupt voll Blut und Wunden
!!!AGN: 4-Part Chorale
!!!SCT: BH 098
!!!SCT: BWV 244
**harm	**root	**kern	**kern	**kern	**kern
!	!	!bass	!tenor	!alto	!soprno
*	*Iorgan	*Iorgan	*Iorgan	*Iorgan	*Iorgan
*	*	*clefF4	*clefF4	*clefG2	*clefG2
*M4/4	*M4/4	*M4/4	*M4/4	*M4/4	*M4/4
*met(c)	*met(c)	*met(c)	*met(c)	*met(c)	*met(c)
*MM60	*MM60	*MM60	*MM60	*MM60	*MM60
*k[f#c#g#d#a#]	*k[f#c#g#d#a#]	*k[f#c#g#d#a#]	*k[f#c#g#d#a#]	*k[f#c#g#d#a#]	*k[f#c#g#d#a#]
*B:	*B:	*B:	*B:	*B:	*B:
*>[A,A,B]	*>[A,A,B]	*>[A,A,B]	*>[A,A,B]	*>[A,A,B]	*>[A,A,B]
*>A	*>A	*>A	*>A	*>A	*>A
I	4DD	4BB	4F#	4B	4d#
=1	=1	=1	=1	=1	=1
IV	4GG	4E	4E	4B	4g#
Ib	4DD	4D#	4F#	4B	4f#
IVb	8GG	8GG#	8G#	8B	4e
V7b	8AA	8AA#	8F#	8c#	.
I	4DD	4BB	4F#	8c#	4d#
.	.	.	.	8B	.
=2	=2	=2	=2	=2	=2
ii7b	4EE	4EE	4G#	4B	2c#
V	4AA	4FF#	4F#	4A#	.
I;	4DD;	4BB;	4F#;	4B;	4d#;
viib/vi	4AA#	4AA#	4F##	4c#	4a#
=3	=3	=3	=3	=3	=3
vi	4BB	8GG#	4D#	8B	4b
.	.	8AA#	.	8c#	.
vib	4BB	8BB	4G#	4d#	4b
.	.	8C#	.	.	.
V/vi	4FF#	4D#	4G#	4d#	8a#
.	.	.	.	.	8g#
V/vi	4FF#	4DD#	4F##	8d#	4a#
.	.	.	.	8c#	.
=4	=4	=4	=4	=4	=4
vi;	2.BB;	2.GG#;	2.G#;	2.B;	2.g#;
=:|!	=:|!	=:|!	=:|!	=:|!	=:|!
*>B	*>B	*>B	*>B	*>B	*>B
vi	4BB	4G#	4d#	8g#	4b
.	.	.	.	8f#	.
=5	=5	=5	=5	=5	=5
viib	4CC#	4C#	8c#	4e	8a#
.	.	.	8B	.	8g#
iii	4FF#	4D#	4A#	8d#	4f#
.	.	.	.	8c#	.
IV	4GG	8E	8G#	4B	4g#
.	.	8D#	8F#	.	.
viib	4CC#	4C#	8E	4e	4a#
.	.	.	8F#	.	.
!!linebreak: 2
=6	=6	=6	=6	=6	=6
IVc	4GG	2BB	4G#	4e	2b
I	4DD	.	8F#	8d#	.
.	.	.	8E	8c#	.
I;	4DD;	4BB;	4F#;	4d#;	4b;
I	4DD	4BB	4B	4d#	4f#
=7	=7	=7	=7	=7	=7
IV	4GG	4E	4B	4e	4g#
I	4DD	4BB	8B	4d#	4f#
.	.	.	8A#	.	.
ii	4EE	8C#	4G#	4d#	4e
.	.	8D#	.	.	.
iib	4EE	8E	4G#	4c#	4e
.	.	8F#	.	.	.
=8	=8	=8	=8	=8	=8
VI;	2.BB;	2.G#;	2.G#;	2.B#;	2.d#;
V7b/V	4EE	4E#	4G#	4c#	4b
=9	=9	=9	=9	=9	=9
V	4AA	4F#	4F#	4c#	8a#
.	.	.	.	.	8b
Vb	4AA	4AA#	8F#	4c#	4cc#
.	.	.	8E#	.	.
Ib	4DD	8D#	8F#	4d#	4b
.	.	8E#	8G#	.	.
V	4AA	4F#	8A#	4c#	4a#
.	.	.	8F#	.	.
=10	=10	=10	=10	=10	=10
vib	4BB	4BB	8D#	4d#	2g#
.	.	.	8G#	.	.
V/V	4EE	4C#	4E#	4c#	.
V;	4AA;	4FF#;	4F#;	4c#;	4a#;
I	4DD	8BB	4F#	4B	4d#
.	.	8AA#	.	.	.
=11	=11	=11	=11	=11	=11
IVb	4GG	4GG#	4E	8B	4e
.	.	.	.	8A#	.
Ic	4DD	4FF#	4F#	4B	4d#
ii7b	4EE	4EE	4G#	4B	4c#
V	4AA	4FF#	8C#	4A#	4f#
.	.	.	8F#	.	.
=12	=12	=12	=12	=12	=12
I;	2.DD;	2.BB;	2.F#;	2.B;	2.d#;
==	==	==	==	==	==
*-	*-	*-	*-	*-	*-
!!chor2scor: -l 2 -s 0.6 -o %b.pmx
!!!YEC: Copyright 1994, David Huron
!!!YEC: Changes/Additions 2001 by Craig Stuart Sapp
!!!YEN: United States of America
!!!SMA: 371 Bach Chorales, edited by Ludwig Erk, C.F. Peters
!!!PDT: 1850, 1865
!!!ONB: Harmony and Root analysis done manually by Craig Sapp
